icon/pk/belt.svg

<svg viewBox="0 0 48 48" fill="none" xmlns="http://www.w3.org/2000/svg" height="1em" width="1em">
  <path d="M10.5651 30.3641L4.20117 36.728L11.2722 43.7991L17.6362 37.4351" stroke="black" stroke-width="4" stroke-linecap="round" stroke-linejoin="round"/>
  <path d="M21.8789 19.0503L36.7281 4.20105L43.7992 11.2721L28.95 26.1214" stroke="black" stroke-width="4" stroke-linecap="round" stroke-linejoin="round"/>
  <path d="M9.85855 29.6569C9.0775 28.8758 9.0775 27.6095 9.85855 26.8285L18.3438 18.3432C19.1249 17.5621 20.3912 17.5621 21.1723 18.3432L29.6575 26.8285C30.4386 27.6095 30.4386 28.8758 29.6575 29.6569L21.1723 38.1422C20.3912 38.9232 19.1249 38.9232 18.3438 38.1422L9.85855 29.6569Z" stroke="black" stroke-width="4" stroke-linecap="round" stroke-linejoin="round"/>
  <path d="M25.4148 22.5857L18.3438 29.6567" stroke="black" stroke-width="4" stroke-linecap="round" stroke-linejoin="round"/>
  <path d="M31.7785 9.15061L38.8496 16.2217" stroke="black" stroke-width="4" stroke-linecap="round" stroke-linejoin="round"/>
  <path d="M26.8283 14.1008L33.8994 21.1719" stroke="black" stroke-width="4" stroke-linecap="round" stroke-linejoin="round"/>
  <path d="M15.5154 21.1716L26.8291 32.4854" stroke="black" stroke-width="4" stroke-linecap="round" stroke-linejoin="round"/>
</svg>

<svg width="48" height="48" fill="none" xmlns="http://www.w3.org/2000/svg"><path d="m10.565 30.364-6.364 6.364 7.071 7.071 6.364-6.364M21.879 19.05l14.85-14.849 7.07 7.071-14.849 14.85" stroke="#000" stroke-width="4" stroke-linecap="round" stroke-linejoin="round"/><path d="M9.859 29.657a2 2 0 0 1 0-2.829l8.485-8.485a2 2 0 0 1 2.828 0l8.485 8.485a2 2 0 0 1 0 2.829l-8.485 8.485a2 2 0 0 1-2.828 0l-8.485-8.485ZM25.415 22.586l-7.071 7.07M31.779 9.15l7.07 7.072M26.828 14.1l7.071 7.072M15.515 21.172 26.83 32.485" stroke="#000" stroke-width="4" stroke-linecap="round" stroke-linejoin="round"/></svg>
